X:262
T: Der lustige Bauer
N: A0306
O: Europa, Mitteleuropa, Deutschland
N: 68 Lieder. Nuernberg 1542 bei Berg und Newber. No. 10.
R: Romanze, Ballade, Lied
M: 4/2
L: 1/4
K: F
c3cc3c | c2c4d2 | c4F4 |
c3cc3c | c2c4d2 | c4F4 |
z4F4 | F4F2F2- | F2E2D2D2 | C8 |
z4F4 | F4F2F2- | F2E2D2D2 | C8 |
F4C2 | F4G2 | A6 | G6
F4C2 | F4G2 | A4B2 | c4
c2 | B4A2 | B4G2 | F6 | F6

@@@ Tune index: 262
